dist/styles/ag-theme-alpine/icons/paste.svg

<!-- Generated by IcoMoon.io -->
<svg version="1.1" xmlns="http://www.w3.org/2000/svg" width="32" height="32" viewBox="0 0 32 32">
<title>paste</title>
<path d="M25.333 4h-5.573c-0.56-1.547-2.027-2.667-3.76-2.667s-3.2 1.12-3.76 2.667h-5.573c-1.467 0-2.667 1.2-2.667 2.667v21.333c0 1.467 1.2 2.667 2.667 2.667h18.667c1.467 0 2.667-1.2 2.667-2.667v-21.333c0-1.467-1.2-2.667-2.667-2.667h0zM16 4c0.733 0 1.333 0.6 1.333 1.333s-0.6 1.333-1.333 1.333c-0.733 0-1.333-0.6-1.333-1.333s0.6-1.333 1.333-1.333zM25.333 28h-18.667v-21.333h2.667v4h13.333v-4h2.667v21.333z"></path>
</svg>

<?xml version="1.0" encoding="UTF-8" standalone="no"?>
<!DOCTYPE svg PUBLIC "-//W3C//DTD SVG 1.1//EN" "http://www.w3.org/Graphics/SVG/1.1/DTD/svg11.dtd">
<svg width="100%" height="100%" viewBox="0 0 32 32" version="1.1" xmlns="http://www.w3.org/2000/svg" xmlns:xlink="http://www.w3.org/1999/xlink" xml:space="preserve" xmlns:serif="http://www.serif.com/" style="fill-rule:evenodd;clip-rule:evenodd;stroke-linejoin:round;stroke-miterlimit:2;">
    <path id="paste" d="M25.334,4L19.76,4C19.2,2.453 17.733,1.333 16,1.333C14.267,1.333 12.8,2.453 12.24,4L6.667,4C5.2,4 4,5.2 4,6.667L4,28C4,29.467 5.2,30.667 6.667,30.667L25.334,30.667C26.801,30.667 28.001,29.467 28.001,28L28.001,6.667C28.001,5.2 26.801,4 25.334,4ZM16,4C16.733,4 17.333,4.6 17.333,5.333C17.333,6.066 16.733,6.666 16,6.666C15.267,6.666 14.667,6.066 14.667,5.333C14.667,4.6 15.267,4 16,4ZM25.333,28L6.666,28L6.666,6.667L9.333,6.667L9.333,10.667L22.666,10.667L22.666,6.667L25.333,6.667L25.333,28Z" style="fill-rule:nonzero;"/>
</svg>
